; generated by Slic3r Prusa Edition 1.41.2+win64 on 2019-01-27 at 14:01:01

; 

; external perimeters extrusion width = 0.56mm
; perimeters extrusion width = 0.56mm
; infill extrusion width = 0.56mm
; solid infill extrusion width = 0.56mm
; top infill extrusion width = 0.50mm
; first layer extrusion width = 0.56mm

M107
M83 
M104 S185
M140 S0
G28 W
M190 S0
M109 S185
G1 Z0 X-90 Y-20 F8000.0
G1 X-60 Y-65 E9.0 F8000 ; este es un coment
G1 X-27 E12.5 F8000
G92 E0.0

; Filament gcode
G21 ; set units to millimeters
G90 ; use absolute coordinates
M82 ; use absolute distances for extrusion
G92 E0
G1 Z0.280 F4800.000
G1 E-2.00000 F2400.00000
G92 E0
G1 X-15.013 Y1.523 F4800.000
G1 E2.00000 F2400.00000
G1 F900
G1 X-15.104 Y0.624 E2.04735
G1 X-15.160 Y-0.904 E2.12740
G1 X-15.054 Y-2.530 E2.21275
G1 X-14.774 Y-4.141 E2.29838
G1 X-14.229 Y-5.977 E2.39871
G1 X-13.616 Y-7.418 E2.48076
G1 X-12.530 Y-9.294 E2.59429
G1 X-11.134 Y-11.059 E2.71212
G1 X-9.470 Y-12.622 E2.83168
G1 X-7.814 Y-13.788 E2.93777
G1 X-5.732 Y-14.849 E3.06018
G1 X-3.797 Y-15.505 E3.16720
G1 X-2.034 Y-15.865 E3.26142
G1 X0.153 Y-16.021 E3.37626
G1 X2.462 Y-15.845 E3.49753
G1 X3.827 Y-15.575 E3.57040
G1 X5.139 Y-15.187 E3.64209
G1 X7.342 Y-14.227 E3.76792
G1 X8.554 Y-13.508 E3.84176
G1 X9.615 Y-12.744 E3.91023
G1 X11.386 Y-11.108 E4.03651
G1 X12.298 Y-10.027 E4.11056
G1 X13.061 Y-8.939 E4.18020
G1 X14.196 Y-6.803 E4.30686
G1 X14.699 Y-5.481 E4.38097
G1 X15.040 Y-4.275 E4.44659
G1 X15.408 Y-1.953 E4.56974
G1 X15.430 Y0.224 E4.68375
G1 X14.406 Y10.664 E5.23319
G1 X14.190 Y12.247 E5.31686
G1 X13.897 Y13.550 E5.38678
G1 X13.621 Y14.349 E5.43106
G1 X13.167 Y15.274 E5.48507
G1 X12.625 Y16.083 E5.53605
G1 X11.989 Y16.802 E5.58632
G1 X11.274 Y17.416 E5.63569
G1 X10.567 Y17.880 E5.67997
G1 X9.748 Y18.281 E5.72773
G1 X8.812 Y18.590 E5.77934
G1 X7.934 Y18.751 E5.82614
G1 X7.072 Y18.799 E5.87135
G1 X-6.821 Y18.798 E6.59896
G1 X-8.462 Y18.598 E6.68557
G1 X-9.436 Y18.280 E6.73921
G1 X-10.305 Y17.849 E6.79004
G1 X-11.051 Y17.343 E6.83723
G1 X-11.806 Y16.665 E6.89041
G1 X-12.420 Y15.935 E6.94036
G1 X-12.976 Y15.049 E6.99513
G1 X-13.417 Y14.064 E7.05167
G1 X-13.709 Y13.071 E7.10587
G1 X-14.046 Y11.051 E7.21314
G1 X-15.005 Y1.598 E7.71079
; PURGING FINISHED
G1 E5.71079 F2400.00000
G92 E0
G1 X-6.597 Y5.954 F4800.000
G1 E2.00000 F2400.00000
G1 F900
G1 X-5.885 Y6.603 E2.05046
G1 X-5.133 Y7.164 E2.09960
G1 X-4.331 Y7.646 E2.14860
G1 X-4.032 Y7.788 E2.16593
G1 X-4.297 Y8.392 E2.20043
G1 X-4.594 Y8.937 E2.23297
G1 X-5.139 Y9.739 E2.28376
G1 X-5.605 Y10.289 E2.32153
G1 X-6.050 Y10.729 E2.35428
G1 X-6.432 Y11.041 E2.38010
G1 X-6.559 Y10.244 E2.42237
G1 X-6.661 Y9.131 E2.48088
G1 X-6.696 Y7.942 E2.54322
G1 X-6.659 Y6.673 E2.60968
G1 X-6.604 Y6.029 E2.64354
G1 X-6.979 Y4.780 F4800.000
G1 F900
G1 X-6.202 Y5.639 E2.70421
G1 X-5.566 Y6.216 E2.74918
G1 X-4.853 Y6.748 E2.79576
G1 X-4.094 Y7.206 E2.84217
G1 X-3.380 Y7.545 E2.88359
G1 X-3.847 Y8.612 E2.94461
G1 X-4.167 Y9.198 E2.97956
G1 X-4.741 Y10.042 E3.03303
G1 X-5.238 Y10.629 E3.07334
G1 X-5.715 Y11.101 E3.10848
G1 X-6.140 Y11.448 E3.13719
G1 X-6.466 Y11.654 E3.15738
G1 X-6.775 Y11.794 E3.17515
G1 X-6.882 Y11.390 E3.19705
G1 X-7.055 Y10.306 E3.25453
G1 X-7.160 Y9.162 E3.31472
G1 X-7.196 Y7.942 E3.37865
G1 X-7.158 Y6.645 E3.44661
G1 X-7.040 Y5.266 E3.51910
G1 X-6.988 Y4.854 E3.54081
G1 E1.54081 F2400.00000
G92 E0
G1 X4.352 Y7.792 F4800.000
G1 E2.00000 F2400.00000
G1 F900
G1 X5.220 Y7.301 E2.05224
G1 X5.995 Y6.753 E2.10195
G1 X6.922 Y5.949 E2.16624
G1 X7.003 Y7.309 E2.23763
G1 X7.002 Y8.610 E2.30578
G1 X6.923 Y9.823 E2.36941
G1 X6.758 Y11.054 E2.43449
G1 X6.284 Y10.653 E2.46700
G1 X5.791 Y10.145 E2.50406
G1 X5.455 Y9.740 E2.53163
G1 X5.021 Y9.116 E2.57144
G1 X4.710 Y8.581 E2.60387
G1 X4.383 Y7.861 E2.64530
G1 X3.685 Y7.534 F4800.000
G1 F900
G1 X4.169 Y7.321 E2.67299
G1 X4.952 Y6.878 E2.72010
G1 X5.686 Y6.360 E2.76720
G1 X6.364 Y5.771 E2.81422
G1 X6.980 Y5.119 E2.86120
G1 X7.282 Y4.727 E2.88714
G1 X7.418 Y5.867 E2.94728
G1 X7.503 Y7.295 E3.02219
G1 X7.502 Y8.627 E3.09197
G1 X7.421 Y9.872 E3.15734
G1 X7.264 Y11.042 E3.21916
G1 X7.202 Y11.380 E3.23714
G1 X7.090 Y11.793 E3.25958
G1 X6.757 Y11.640 E3.27878
G1 X6.396 Y11.403 E3.30139
G1 X5.942 Y11.019 E3.33255
G1 X5.419 Y10.479 E3.37192
G1 X5.057 Y10.043 E3.40161
G1 X4.599 Y9.385 E3.44360
G1 X4.265 Y8.810 E3.47841
G1 X3.716 Y7.603 E3.54789
G1 X3.352 Y8.011 F4800.000
G1 F900
G1 X2.280 Y8.317 E3.60628
G1 X1.428 Y8.477 E3.65172
G1 X0.565 Y8.556 E3.69709
G1 X-0.296 Y8.555 E3.74220
G1 X-1.136 Y8.476 E3.78638
G1 X-1.960 Y8.323 E3.83029
G1 X-3.041 Y8.016 E3.88911
G1 X-3.398 Y8.833 E3.93578
G1 X-3.739 Y9.459 E3.97315
G1 X-4.342 Y10.346 E4.02929
G1 X-4.871 Y10.969 E4.07214
G1 X-5.381 Y11.473 E4.10967
G1 X-5.847 Y11.854 E4.14120
G1 X-6.228 Y12.095 E4.16481
G1 X-6.473 Y12.206 E4.17889
G1 X-6.638 Y12.253 E4.18787
G1 X-6.745 Y12.267 E4.19354
G1 X-6.908 Y12.252 E4.20211
G1 X-7.072 Y12.165 E4.21183
G1 X-7.212 Y11.978 E4.22405
G1 X-7.290 Y11.801 E4.23419
G1 X-7.372 Y11.494 E4.25085
G1 X-7.552 Y10.368 E4.31054
G1 X-7.660 Y9.192 E4.37242
G1 X-7.696 Y7.942 E4.43793
G1 X-7.657 Y6.616 E4.50738
G1 X-7.538 Y5.213 E4.58114
G1 X-7.366 Y3.856 E4.65280
G1 X-7.593 Y3.410 E4.67900
G1 X-7.339 Y3.270 E4.69421
G1 X-6.920 Y3.974 E4.73712
G1 X-6.416 Y4.657 E4.78159
G1 X-5.847 Y5.285 E4.82596
G1 X-5.248 Y5.830 E4.86839
G1 X-4.574 Y6.333 E4.91241
G1 X-3.858 Y6.765 E4.95623
G1 X-3.105 Y7.122 E4.99986
G1 X-2.324 Y7.403 E5.04335
G1 X-1.519 Y7.605 E5.08681
G1 X-0.696 Y7.727 E5.13036
G1 X0.146 Y7.769 E5.17454
G1 X0.682 Y7.752 E5.20260
G1 X1.528 Y7.657 E5.24720
G1 X2.359 Y7.478 E5.29175
G1 X3.167 Y7.216 E5.33624
G1 X3.944 Y6.874 E5.38071
G1 X4.684 Y6.456 E5.42519
G1 X5.377 Y5.966 E5.46967
G1 X6.017 Y5.410 E5.51408
G1 X6.599 Y4.794 E5.55846
G1 X7.113 Y4.128 E5.60253
G1 X7.557 Y3.418 E5.64638
G1 X7.987 Y2.549 E5.69717
G1 X8.249 Y2.663 E5.71214
G1 X8.001 Y3.223 E5.74422
G1 X7.678 Y3.820 E5.77978
G1 X7.916 Y5.822 E5.88540
G1 X8.003 Y7.280 E5.96187
G1 X8.002 Y8.644 E6.03329
G1 X7.919 Y9.922 E6.10040
G1 X7.758 Y11.121 E6.16374
G1 X7.690 Y11.490 E6.18342
G1 X7.602 Y11.815 E6.20101
G1 X7.528 Y11.982 E6.21061
G1 X7.403 Y12.151 E6.22161
G1 X7.283 Y12.231 E6.22919
G1 X7.157 Y12.264 E6.23599
G1 X6.963 Y12.254 E6.24618
G1 X6.793 Y12.207 E6.25542
G1 X6.514 Y12.079 E6.27150
G1 X6.096 Y11.804 E6.29768
G1 X5.601 Y11.384 E6.33170
G1 X5.046 Y10.814 E6.37337
G1 X4.659 Y10.346 E6.40519
G1 X4.177 Y9.654 E6.44936
G1 X3.821 Y9.039 E6.48655
G1 X3.383 Y8.079 E6.54183
G1 X3.185 Y7.539 F4800.000
G1 E4.54183 F2400.00000
G92 E0
G1 X8.136 Y2.117 F4800.000
G1 E2.00000 F2400.00000
G1 F900
G1 X8.221 Y1.894 E2.01252
G1 X8.339 Y1.452 E2.03648
G1 X8.629 Y1.529 E2.05218
G1 X8.508 Y1.981 E2.07668
G1 X8.416 Y2.223 E2.09025
G1 X8.206 Y2.144 E2.10201
G1 X8.280 Y1.927 F4800.000
G1 X8.413 Y1.229
G1 F900
G1 X8.525 Y0.552 E2.13797
G1 X8.821 Y0.600 E2.15364
G1 X8.736 Y1.125 E2.18148
G1 X8.693 Y1.289 E2.19041
G1 X8.486 Y1.245 E2.20145
G1 X8.665 Y0.797 F4800.000
G1 X8.563 Y0.399
G1 F900
G1 X8.627 Y-0.571 E2.25235
G1 X8.602 Y-1.331 E2.29215
G1 X8.895 Y-1.347 E2.30752
G1 X8.925 Y-0.942 E2.32878
G1 X8.920 Y-0.570 E2.34828
G1 X8.799 Y-0.569 E2.35459
G1 X8.919 Y-0.564 E2.36090
G1 X8.913 Y-0.189 E2.38055
G1 X8.877 Y0.248 E2.40351
G1 X8.848 Y0.431 E2.41318
G1 X8.638 Y0.407 E2.42425
G1 X8.766 Y-0.058 F4800.000
G1 X8.595 Y-1.449
G1 F900
G1 X8.496 Y-2.185 E2.46312
G1 X8.786 Y-2.230 E2.47849
G1 X8.858 Y-1.827 E2.49993
G1 X8.885 Y-1.480 E2.51818
G1 X8.669 Y-1.457 E2.52952
G1 X8.652 Y-1.946 F4800.000
G1 X8.480 Y-2.291
G1 F900
G1 X8.295 Y-3.073 E2.57161
G1 X7.987 Y-3.960 E2.62079
G1 X8.255 Y-4.065 E2.63588
G1 X8.503 Y-3.419 E2.67213
G1 X8.703 Y-2.695 E2.71148
G1 X8.765 Y-2.350 E2.72984
G1 X8.553 Y-2.306 E2.74118
G1 X8.487 Y-2.790 F4800.000
G1 X7.937 Y-4.050
G1 F900
G1 X7.621 Y-4.730 E2.78045
G1 X7.877 Y-4.862 E2.79553
G1 X7.997 Y-4.650 E2.80828
G1 X8.208 Y-4.172 E2.83561
G1 X8.006 Y-4.081 E2.84724
G1 X7.810 Y-4.533 F4800.000
G1 X7.562 Y-4.815
G1 F900
G1 X7.218 Y-5.395 E2.88256
G1 X6.739 Y-6.049 E2.92505
G1 X6.278 Y-6.558 E2.96101
G1 X6.497 Y-6.760 E2.97658
G1 X6.849 Y-6.384 E3.00356
G1 X7.315 Y-5.784 E3.04334
G1 X7.559 Y-5.422 E3.06623
G1 X7.819 Y-4.964 E3.09380
G1 X7.627 Y-4.852 E3.10543
G1 X7.386 Y-5.283 F4800.000
G1 E1.10543 F2400.00000
G92 E0
G1 X6.197 Y-6.658 F4800.000
G1 E2.00000 F2400.00000
G1 F900
G1 X5.693 Y-7.117 E2.03571
G1 X5.890 Y-7.338 E2.05126
G1 X6.239 Y-7.034 E2.07550
G1 X6.399 Y-6.863 E2.08778
G1 X6.250 Y-6.711 E2.09895
G1 X5.949 Y-7.092 F4800.000
G1 X5.586 Y-7.220
G1 F900
G1 X4.861 Y-7.761 E2.14634
G1 X4.155 Y-8.185 E2.18947
G1 X3.402 Y-8.543 E2.23314
G1 X3.518 Y-8.809 E2.24837
G1 X3.823 Y-8.687 E2.26558
G1 X4.188 Y-8.509 E2.28682
G1 X4.602 Y-8.279 E2.31165
G1 X5.217 Y-7.881 E2.35003
G1 X5.767 Y-7.445 E2.38678
G1 X5.633 Y-7.279 E2.39798
G1 X5.231 Y-7.572 F4800.000
G1 E0.39798 F2400.00000
G92 E0
G1 X3.307 Y-8.577 F4800.000
G1 E2.00000 F2400.00000
G1 F900
G1 X2.605 Y-8.829 E2.03907
G1 X1.816 Y-9.025 E2.08164
G1 X1.215 Y-9.115 E2.11347
G1 X1.258 Y-9.411 E2.12913
G1 X1.836 Y-9.329 E2.15971
G1 X2.265 Y-9.234 E2.18271
G1 X3.002 Y-9.016 E2.22297
G1 X3.412 Y-8.852 E2.24607
G1 X3.334 Y-8.647 E2.25756
G1 X2.881 Y-8.839 F4800.000
G1 E0.25756 F2400.00000
G92 E0
G1 X1.117 Y-9.142 F4800.000
G1 E2.00000 F2400.00000
G1 F900
G1 X0.094 Y-9.192 E2.05365
G1 X0.099 Y-9.483 E2.06890
G1 X0.372 Y-9.486 E2.08319
G1 X0.951 Y-9.454 E2.11358
G1 X1.144 Y-9.427 E2.12377
G1 X1.124 Y-9.216 E2.13484
G1 X0.655 Y-9.334 F4800.000
G1 X0.038 Y-9.186
G1 F900
G1 X-0.463 Y-9.170 E2.16109
G1 X-1.341 Y-9.066 E2.20740
G1 X-1.385 Y-9.349 E2.22241
G1 X-1.180 Y-9.391 E2.23336
G1 X-0.297 Y-9.479 E2.27984
G1 X0.032 Y-9.483 E2.29709
G1 X0.037 Y-9.261 E2.30871
G1 X-0.450 Y-9.294 F4800.000
G1 X-1.380 Y-9.045
G1 F900
G1 X-2.062 Y-8.898 E2.34523
G1 X-2.859 Y-8.641 E2.38911
G1 X-3.516 Y-8.352 E2.42670
G1 X-3.639 Y-8.622 E2.44222
G1 X-3.170 Y-8.842 E2.46935
G1 X-2.465 Y-9.095 E2.50861
G1 X-2.016 Y-9.223 E2.53304
G1 X-1.442 Y-9.337 E2.56371
G1 X-1.396 Y-9.119 E2.57540
G1 X-1.880 Y-9.020 F4800.000
G1 E0.57540 F2400.00000
G92 E0
G1 X-3.598 Y-8.322 F4800.000
G1 E2.00000 F2400.00000
G1 F900
G1 X-4.263 Y-7.946 E2.04001
G1 X-4.412 Y-8.202 E2.05553
G1 X-3.974 Y-8.464 E2.08228
G1 X-3.731 Y-8.579 E2.09636
G1 X-3.633 Y-8.389 E2.10756
G1 X-4.086 Y-8.212 F4800.000
G1 X-4.343 Y-7.906
G1 F900
G1 X-5.094 Y-7.376 E2.15573
G1 X-5.720 Y-6.830 E2.19920
G1 X-6.299 Y-6.217 E2.24339
G1 X-6.517 Y-6.410 E2.25862
G1 X-6.305 Y-6.664 E2.27593
G1 X-6.015 Y-6.964 E2.29779
G1 X-5.673 Y-7.283 E2.32228
G1 X-5.093 Y-7.755 E2.36147
G1 X-4.736 Y-8.008 E2.38439
G1 X-4.501 Y-8.148 E2.39872
G1 X-4.384 Y-7.969 E2.40992
G1 X-4.817 Y-7.746 F4800.000
G1 E0.40992 F2400.00000
G92 E0
G1 X-6.365 Y-6.132 F4800.000
G1 E2.00000 F2400.00000
G1 F900
G1 X-6.816 Y-5.548 E2.03863
G1 X-7.227 Y-4.891 E2.07921
G1 X-7.479 Y-5.040 E2.09455
G1 X-7.287 Y-5.382 E2.11508
G1 X-6.875 Y-5.980 E2.15309
G1 X-6.595 Y-6.316 E2.17602
G1 X-6.424 Y-6.179 E2.18751
G1 X-6.746 Y-5.807 F4800.000
G1 X-7.281 Y-4.796
G1 F900
G1 X-7.630 Y-4.091 E2.22871
G1 X-7.915 Y-3.343 E2.27061
G1 X-8.171 Y-2.390 E2.32233
G1 X-8.451 Y-2.451 E2.33732
G1 X-8.419 Y-2.641 E2.34740
G1 X-8.219 Y-3.379 E2.38745
G1 X-7.908 Y-4.207 E2.43379
G1 X-7.725 Y-4.601 E2.45655
G1 X-7.539 Y-4.932 E2.47641
G1 X-7.347 Y-4.831 E2.48780
G1 X-7.600 Y-4.411 F4800.000
G1 E0.48780 F2400.00000
G92 E0
G1 X-8.180 Y-2.260 F4800.000
G1 E2.00000 F2400.00000
G1 F900
G1 X-8.297 Y-1.553 E2.03758
G1 X-8.283 Y-1.552 E2.03831
G1 X-8.329 Y-0.849 E2.07519
G1 X-8.301 Y-0.001 E2.11966
G1 X-8.188 Y0.845 E2.16433
G1 X-8.019 Y1.556 E2.20262
G1 X-8.305 Y1.629 E2.21809
G1 X-8.432 Y1.160 E2.24351
G1 X-8.514 Y0.730 E2.26645
G1 X-8.601 Y0.021 E2.30388
G1 X-8.631 Y-0.914 E2.35286
G1 X-8.582 Y-1.572 E2.38741
G1 X-8.318 Y-1.554 E2.40130
G1 X-8.581 Y-1.585 E2.41521
G1 X-8.570 Y-1.757 E2.42426
G1 X-8.475 Y-2.310 E2.45364
G1 X-8.254 Y-2.273 E2.46538
G1 X-8.342 Y-1.787 F4800.000
G1 E0.46538 F2400.00000
G92 E0
G1 X-8.001 Y1.643 F4800.000
G1 E2.00000 F2400.00000
G1 F900
G1 X-7.752 Y2.361 E2.03984
G1 X-8.029 Y2.462 E2.05531
G1 X-8.200 Y2.015 E2.08043
G1 X-8.278 Y1.728 E2.09598
G1 X-8.073 Y1.665 E2.10722
G1 X-7.972 Y2.142 F4800.000
G1 X-7.724 Y2.448
G1 F900
G1 X-7.426 Y3.089 E2.14429
G1 X-7.691 Y3.219 E2.15972
G1 X-7.886 Y2.836 E2.18219
G1 X-7.991 Y2.561 E2.19764
G1 X-7.794 Y2.477 E2.20889
G1 X-7.645 Y2.941 F4800.000
G1 X-7.151 Y4.153
G1 F900
G1 X-7.016 Y4.319 E2.21068
G1 E0.21068 F2400.00000
G92 E0
G1 X-4.566 Y8.573 F4800.000
G1 E2.00000 F2400.00000
G1 F900
G1 X-6.289 Y6.850 E2.13163
G1 X-6.310 Y7.558 E2.16991
G1 X-5.000 Y8.868 E2.26997
G1 X-5.295 Y9.302 E2.29833
G1 X-6.311 Y8.286 E2.37593
G1 X-6.289 Y9.038 E2.41653
G1 X-5.611 Y9.716 E2.46834
G1 X-5.951 Y10.104 E2.49626
G1 X-6.469 Y9.587 E2.53578
G1 E0.53578 F2400.00000
G92 E0
G1 X-3.115 Y7.562 F4800.000
G1 E2.00000 F2400.00000
G1 F900
G1 X-2.445 Y7.777 E2.01746
G1 X-1.868 Y7.931 E2.03227
G1 X-1.080 Y8.077 E2.05217
G1 X-0.277 Y8.152 E2.07219
G1 X0.547 Y8.156 E2.09265
G1 X1.584 Y8.047 E2.11853
G1 X2.454 Y7.859 E2.14063
G1 X3.272 Y7.610 E2.16184
G1 X3.355 Y7.412 E2.16716
G1 E0.16716 F2400.00000
G92 E0
G1 X5.015 Y8.808 F4800.000
G1 E2.00000 F2400.00000
G1 F900
G1 X6.484 Y10.276 E2.12296
G1 X6.565 Y9.558 E2.16575
G1 X4.912 Y7.906 E2.30409
G1 X5.423 Y7.617 E2.33881
G1 X6.614 Y8.808 E2.43854
G1 X6.628 Y8.023 E2.48502
G1 X5.891 Y7.286 E2.54673
G1 X6.348 Y6.944 E2.58053
G1 X6.853 Y7.449 E2.62287
G1 X7.001 Y5.507 F4800.000
G1 F900
G1 X7.111 Y5.402 E2.62405
G1 Z0.480 F4800.000
; PURGING FINISHED
G1 E0.62405 F2400.00000
G92 E0
G1 X-7.723 Y2.447 F4800.000
G1 E2.00000 F2400.00000
G1 F1200
G1 X-7.992 Y1.672 E2.03190
G1 X-8.189 Y0.845 E2.06496
G1 X-8.302 Y-0.000 E2.09813
G1 X-8.331 Y-0.849 E2.13115
G1 X-8.275 Y-1.693 E2.16402
G1 X-8.140 Y-2.513 E2.19634
G1 X-7.924 Y-3.314 E2.22861
G1 X-7.631 Y-4.091 E2.26091
G1 X-7.261 Y-4.838 E2.29333
G1 X-6.817 Y-5.549 E2.32589
G1 X-6.303 Y-6.215 E2.35861
G1 X-5.721 Y-6.831 E2.39157
G1 X-5.080 Y-7.387 E2.42454
G1 X-4.387 Y-7.877 E2.45757
G1 X-3.648 Y-8.295 E2.49059
G1 X-2.870 Y-8.637 E2.52361
G1 X-2.062 Y-8.900 E2.55664
G1 X-1.230 Y-9.079 E2.58975
G1 X-0.335 Y-9.176 E2.62474
G1 X0.151 Y-9.191 E2.64366
G1 X0.994 Y-9.149 E2.67646
G1 X1.816 Y-9.027 E2.70881
G1 X2.621 Y-8.824 E2.74108
G1 X3.403 Y-8.544 E2.77337
G1 X4.156 Y-8.186 E2.80576
G1 X4.872 Y-7.754 E2.83830
G1 X5.546 Y-7.252 E2.87098
G1 X6.146 Y-6.707 E2.90249
G1 X6.714 Y-6.078 E2.93544
G1 X7.219 Y-5.395 E2.96845
G1 X7.652 Y-4.665 E3.00148
G1 X8.011 Y-3.895 E3.03450
G1 X8.290 Y-3.093 E3.06753
G1 X8.487 Y-2.266 E3.10059
G1 X8.600 Y-1.420 E3.13377
G1 X8.628 Y-0.571 E3.16679
G1 X8.573 Y0.272 E3.19966
G1 X8.437 Y1.093 E3.23198
G1 X8.222 Y1.894 E3.26425
G1 X7.928 Y2.671 E3.29656
G1 X7.558 Y3.418 E3.32897
G1 X7.114 Y4.128 E3.36153
G1 X6.600 Y4.794 E3.39425
G1 X6.018 Y5.411 E3.42721
G1 X5.378 Y5.967 E3.46018
G1 X4.684 Y6.457 E3.49320
G1 X3.945 Y6.875 E3.52623
G1 X3.168 Y7.217 E3.55925
G1 X2.360 Y7.479 E3.59228
G1 X1.528 Y7.659 E3.62536
G1 X0.682 Y7.754 E3.65847
G1 X0.146 Y7.770 E3.67931
G1 X-0.697 Y7.729 E3.71211
G1 X-1.519 Y7.606 E3.74445
G1 X-2.324 Y7.404 E3.77672
G1 X-3.106 Y7.123 E3.80901
G1 X-3.858 Y6.766 E3.84141
G1 X-4.575 Y6.334 E3.87394
G1 X-5.249 Y5.831 E3.90662
G1 X-5.848 Y5.286 E3.93813
G1 X-6.417 Y4.658 E3.97108
G1 X-6.921 Y3.975 E4.00409
G1 X-7.355 Y3.245 E4.03712
G1 X-7.694 Y2.516 E4.06836
G1 X-8.218 Y2.378 F4800.000
G1 X-6.564 Y6.040
G1 F900
G1 X-5.910 Y6.634 E4.10270
G1 X-5.155 Y7.197 E4.13934
G1 X-4.351 Y7.682 E4.17587
G1 X-4.085 Y7.808 E4.18728
G1 X-4.333 Y8.374 E4.21130
G1 X-4.629 Y8.916 E4.23531
G1 X-5.171 Y9.715 E4.27285
G1 X-5.635 Y10.262 E4.30074
G1 X-6.077 Y10.699 E4.32490
G1 X-6.403 Y10.965 E4.34126
G1 X-6.519 Y10.239 E4.36984
G1 X-6.621 Y9.129 E4.41318
G1 X-6.655 Y7.942 E4.45937
G1 X-6.618 Y6.676 E4.50861
G1 X-6.570 Y6.114 E4.53051
G1 X-6.965 Y4.827 F4800.000
G1 F900
G1 X-6.216 Y5.654 E4.57387
G1 X-5.580 Y6.233 E4.60733
G1 X-4.865 Y6.766 E4.64199
G1 X-4.104 Y7.224 E4.67653
G1 X-3.407 Y7.555 E4.70653
G1 X-3.866 Y8.603 E4.75101
G1 X-4.185 Y9.187 E4.77688
G1 X-4.757 Y10.030 E4.81649
G1 X-5.254 Y10.615 E4.84634
